X:1
T:Title
%%score { ( 1 3 ) | ( 2 4 ) }
L:1/8
M:4/4
K:Ab
V:1 treble nm="Grand Piano"
V:3 treble 
V:2 bass 
V:4 bass 
V:1
 z4 z2[Q:1/4=96] [Ec][Fd] | cBB=A BEFG |[M:3/4] AA C[B,D] [CE]2 |[M:1/4] [CA][DB] | %4
[M:4/4] [Ec][CA][Fd][Ec] [=DB][DF][EG][DA] | B6 cd | cBB=A BEFG | AABc d2 [Fc][FB] | %8
 [EA] .[Ac]3 [Ac]2 [DGB]2 |[M:3/4] [CEA]6 |[M:1/4] cd |[M:4/4] z c3 z e3 | c[ce] [ce]>[Bd] [GB]4 | %13
 [FA][FA] [GB]>[GB] [Ac] .[Ae]3 | z4 [GB]4 | eccA AG G2 | [Gd][GB][GB]G BA A2 | %17
[M:17/16] FGABce-<e[Af]3/2 |[M:4/4] [Ae] [EAc]3 [DGB]3 [CEA] |[M:3/4] [CEA]6 |] %20
V:2
 z4 z2 [A,,A,][A,,A,] | [E,A,E][E,G,D][E,G,D][E,_G,C] [E,=G,D]E,F,G, | %2
[M:3/4] A,A, [A,,E,A,][A,,E,] [A,,A,]2 |[M:1/4] [A,,A,][A,,A,] | %4
[M:4/4] [A,,A,][A,,A,][A,,A,][A,,A,] [B,,A,][B,,A,][B,,G,][B,,F,] | [E,G,D]6[K:treble] [A,E][A,F] | %6
 [E,A,E][E,G,D][E,G,D][E,_G,C] [E,=G,D]E,F,G, | %7
 A,A,[K:treble][F,DF][=A,CF] [B,F]2[K:bass] [D,D][D,D] | [E,C] .[E,E]3 [E,E]2 E,2 |[M:3/4] A,,6 | %10
[M:1/4][K:treble] [A,A][A,B,A] |[M:4/4] z A3 z A3 | [A,EA][K:bass][A,E] [E,E]>[E,E] [E,E]4 | %13
 [F,C][F,C] [E,E]>[E,E] [A,E] .[A,C]3 | z4 E2 z2 | %15
 [A,CA][A,EA][A,EA][A,CE] [B,DE][K:bass][B,DE] [B,DE]2 | %16
 [E,B,][E,D][E,D][E,B,E] [A,DE][A,CE] [A,CE]2 | %17
[M:17/16] [D,F,D][E,G,E][K:treble][F,A,F][G,B,G][A,CA][CEc]-<[CEc][K:bass][D,D]3/2 | %18
[M:4/4] [E,C] E,3 E,3 E, |[M:3/4] A,,6 |] %20
V:3
 x8 | x8 |[M:3/4] x6 |[M:1/4] x2 |[M:4/4] x8 | x8 | x8 | x8 | x8 |[M:3/4] x6 |[M:1/4] x2 | %11
[M:4/4] .e2 EE .f2 CC | x8 | x8 | [GB][GB] [GB]>[Ac] z2 D2 | x8 | x8 |[M:17/16] x17/2 |[M:4/4] x8 | %19
[M:3/4] x6 |] %20
V:4
 x8 | x8 |[M:3/4] x6 |[M:1/4] x2 |[M:4/4] x8 | x6[K:treble] x2 | x8 | x2[K:treble] x4[K:bass] x2 | %8
 x8 |[M:3/4] x6 |[M:1/4][K:treble] x2 |[M:4/4] [A,CA][A,E]A,A, [A,DA][A,C]A,A, | x[K:bass] x7 | %13
 x8 | [E,E][E,E] [E,E]>[E,E] E,4 | x5[K:bass] x3 | x8 |[M:17/16] x2[K:treble] x5[K:bass] x3/2 | %18
[M:4/4] x8 |[M:3/4] x6 |] %20

